assets/svg/cluster-o.svg

<?xml version="1.0" encoding="UTF-8"?>
<svg width="1000px" height="1000px" viewBox="0 0 1000 1000" version="1.1" xmlns="http://www.w3.org/2000/svg" xmlns:xlink="http://www.w3.org/1999/xlink">
    <!-- Generator: sketchtool 52.4 (67378) - http://www.bohemiancoding.com/sketch -->
    <title>cluster-o</title>
    <desc>Created with sketchtool.</desc>
    <g id="新版图标" stroke="none" stroke-width="1" fill="none" fill-rule="evenodd">
        <g id="cluster-o" fill="#323233">
            <g id="直角-分销市场-面">
                <path d="M444.444444,166.666667 L444.444444,277.777778 L555.555556,277.777778 L555.555556,166.666667 L444.444444,166.666667 Z M444.444444,111.111111 L555.555556,111.111111 C586.238042,111.111111 611.111111,135.984181 611.111111,166.666667 L611.111111,277.777778 C611.111111,308.460264 586.238042,333.333333 555.555556,333.333333 L444.444444,333.333333 C413.761958,333.333333 388.888889,308.460264 388.888889,277.777778 L388.888889,166.666667 C388.888889,135.984181 413.761958,111.111111 444.444444,111.111111 Z" id="Rectangle-52" fill-rule="nonzero"></path>
                <path d="M111.111111,722.222222 L111.111111,833.333333 L222.222222,833.333333 L222.222222,722.222222 L111.111111,722.222222 Z M111.111111,666.666667 L222.222222,666.666667 C252.904708,666.666667 277.777778,691.539736 277.777778,722.222222 L277.777778,833.333333 C277.777778,864.015819 252.904708,888.888889 222.222222,888.888889 L111.111111,888.888889 C80.428625,888.888889 55.5555556,864.015819 55.5555556,833.333333 L55.5555556,722.222222 C55.5555556,691.539736 80.428625,666.666667 111.111111,666.666667 Z" id="Rectangle-52-Copy" fill-rule="nonzero"></path>
                <path d="M444.444444,722.222222 L444.444444,833.333333 L555.555556,833.333333 L555.555556,722.222222 L444.444444,722.222222 Z M444.444444,666.666667 L555.555556,666.666667 C586.238042,666.666667 611.111111,691.539736 611.111111,722.222222 L611.111111,833.333333 C611.111111,864.015819 586.238042,888.888889 555.555556,888.888889 L444.444444,888.888889 C413.761958,888.888889 388.888889,864.015819 388.888889,833.333333 L388.888889,722.222222 C388.888889,691.539736 413.761958,666.666667 444.444444,666.666667 Z" id="Rectangle-52-Copy-2" fill-rule="nonzero"></path>
                <path d="M777.777778,722.222222 L777.777778,833.333333 L888.888889,833.333333 L888.888889,722.222222 L777.777778,722.222222 Z M777.777778,666.666667 L888.888889,666.666667 C919.571375,666.666667 944.444444,691.539736 944.444444,722.222222 L944.444444,833.333333 C944.444444,864.015819 919.571375,888.888889 888.888889,888.888889 L777.777778,888.888889 C747.095292,888.888889 722.222222,864.015819 722.222222,833.333333 L722.222222,722.222222 C722.222222,691.539736 747.095292,666.666667 777.777778,666.666667 Z" id="Rectangle-52-Copy-3" fill-rule="nonzero"></path>
                <path d="M156.305521,666.666667 C200.443606,530.035479 323.791682,429.010466 472.222222,417.719156 L472.222222,277.777778 L527.777778,277.777778 L527.777778,417.719156 C676.208318,429.010466 799.556394,530.035479 843.694479,666.666667 L784.725538,666.666667 C743.48977,561.077251 645.213421,484.050554 527.777778,473.467862 L527.777778,666.666667 L472.222222,666.666667 L472.222222,473.467862 C354.786579,484.050554 256.51023,561.077251 215.274462,666.666667 L156.305521,666.666667 Z" id="Combined-Shape"></path>
            </g>
        </g>
    </g>
</svg>

<svg width="1000" height="1000" xmlns="http://www.w3.org/2000/svg"><g fill="#323233" fill-rule="evenodd"><path d="M444.444 166.667v111.11h111.112v-111.11H444.444zm0-55.556h111.112c30.682 0 55.555 24.873 55.555 55.556v111.11c0 30.683-24.873 55.556-55.555 55.556H444.444c-30.682 0-55.555-24.873-55.555-55.555V166.667c0-30.683 24.873-55.556 55.555-55.556zM111.111 722.222v111.111h111.111v-111.11h-111.11zm0-55.555h111.111c30.683 0 55.556 24.873 55.556 55.555v111.111c0 30.683-24.873 55.556-55.556 55.556h-111.11c-30.683 0-55.556-24.873-55.556-55.556v-111.11c0-30.683 24.873-55.556 55.555-55.556zM444.444 722.222v111.111h111.112v-111.11H444.444zm0-55.555h111.112c30.682 0 55.555 24.873 55.555 55.555v111.111c0 30.683-24.873 55.556-55.555 55.556H444.444c-30.682 0-55.555-24.873-55.555-55.556v-111.11c0-30.683 24.873-55.556 55.555-55.556zM777.778 722.222v111.111h111.11v-111.11h-111.11zm0-55.555h111.11c30.683 0 55.556 24.873 55.556 55.555v111.111c0 30.683-24.873 55.556-55.555 55.556H777.778c-30.683 0-55.556-24.873-55.556-55.556v-111.11c0-30.683 24.873-55.556 55.556-55.556z" fill-rule="nonzero"/><path d="M156.306 666.667c44.138-136.632 167.486-237.657 315.916-248.948V277.778h55.556v139.941c148.43 11.291 271.778 112.316 315.916 248.948h-58.968c-41.236-105.59-139.513-182.616-256.948-193.2v193.2h-55.556v-193.2c-117.435 10.584-215.712 87.61-256.948 193.2h-58.968z"/></g></svg>
